PortableApps/LibreOfficePortable/App/libreoffice/help/media/icon-themes/cmd/sc_insertmasterpage.svg

<svg viewBox="0 0 16 16" xmlns="http://www.w3.org/2000/svg"><path d="m1 2v11h8v-.017578h-2c-1.0907028 0-2-.909297-2-2 0-1.0907029.9092972-2.0000001 2-2.0000001h2v-2c0-1.0907028.9092972-2 2-2 1.090703 0 2 .9092972 2 2v2h2v-6.9824219zm12 10.982422v.017578h2v-.017578z" fill="#4d82b8"/><path d="m0 1v13h9v-1h-8v-11h14v6.9824219c.363969 0 .703481.1077387 1 .2832031v-8.265625zm16 11.699219c-.296519.175464-.636031.283203-1 .283203v.017578h-2v1h3z" fill="#808080"/><path d="m11 5.983051c-.554 0-1 .446-1 1v3h-3c-.554 0-1 .446-1 1s.446 1 1 1h3v3c0 .554.446 1 1 1s1-.446 1-1v-3h3c.554 0 1-.446 1-1s-.446-1-1-1h-3v-3c0-.554-.446-1-1-1z" fill="#4d82b8"/><g fill="#fff"><path d="m2 7v.5 4 .5h3.2929688c-.1788738-.295537-.2876637-.635634-.2910157-1h-2.0019531v-3h6v-1zm11 0v1 .9824219h1v-1.4824219-.5z"/><path d="m2 3v.5 2 .5h7.2734375c.3203465-.553866.8942235-.9412206 1.5566405-1h-7.830078v-1h10v1h-1.830078c.662417.0587794 1.236294.446134 1.55664 1h1.273438v-.5-2-.5z"/></g></svg>

<svg viewBox="0 0 16 16" xmlns="http://www.w3.org/2000/svg">
  <path
     style="fill:#ffffff"
     d="M 1 2 L 1 13 L 9 13 L 9 12.982422 L 7 12.982422 C 5.9092972 12.982422 5 12.073125 5 10.982422 C 5 9.8917191 5.9092972 8.9824219 7 8.9824219 L 9 8.9824219 L 9 6.9824219 C 9 5.8917191 9.9092972 4.9824219 11 4.9824219 C 12.090703 4.9824219 13 5.8917191 13 6.9824219 L 13 8.9824219 L 15 8.9824219 L 15 2 L 1 2 z M 13 12.982422 L 13 13 L 15 13 L 15 12.982422 L 13 12.982422 z "
     />
  <path
     style="fill:#4d82b8"
     d="M 0 1 L 0 14 L 9 14 L 9 13 L 1 13 L 1 2 L 15 2 L 15 8.9824219 C 15.363969 8.9824219 15.703481 9.0901606 16 9.265625 L 16 1 L 0 1 z M 2 8 L 2 9 L 3 9 L 3 8 L 2 8 z M 4 8 L 4 9 L 6.8300781 9 C 6.8870838 8.9949416 6.9418529 8.9824219 7 8.9824219 L 9 8.9824219 L 9 8 L 4 8 z M 13 8 L 13 8.9824219 L 14 8.9824219 L 14 8 L 13 8 z M 2 10 L 2 11 L 3 11 L 3 10 L 2 10 z M 4 10 L 4 11 L 5.0019531 11 C 5.0018978 10.993991 5 10.988442 5 10.982422 C 5 10.625547 5.10424 10.292536 5.2734375 10 L 4 10 z M 16 12.699219 C 15.703481 12.874683 15.363969 12.982422 15 12.982422 L 15 13 L 13 13 L 13 14 L 16 14 L 16 12.699219 z "
     />
  <path
     style="fill:#eac282"
     d="M 2 4 L 2 6 L 9.2734375 6 C 9.6213521 5.39847 10.266172 4.9824219 11 4.9824219 C 11.733828 4.9824219 12.378648 5.39847 12.726562 6 L 14 6 L 14 4 L 2 4 z "
     />
  <path
     style="fill:#4d82b8"
     d="m 11,5.983051 c -0.554,0 -1,0.446 -1,1 v 3 H 7 c -0.554,0 -1,0.446 -1,1 0,0.554 0.446,1 1,1 h 3 v 3 c 0,0.554 0.446,1 1,1 0.554,0 1,-0.446 1,-1 v -3 h 3 c 0.554,0 1,-0.446 1,-1 0,-0.554 -0.446,-1 -1,-1 h -3 v -3 c 0,-0.554 -0.446,-1 -1,-1 z" />
</svg>
